X: 98
T: CAHIRCIVEEN
B: O'Neill's 98
M: 6/8
L: 1/8
Z: Transcribed by John Chambers <jc@trillian.mit.edu>
N: "Slow with expression"
N: "Collected by F.O'Neill"
K:G
D \
| G>AG (FGA) | B>AG AD>E | FED (CB,C) | DG{B}A G2D |
| G>AG (FGA) | BAG AD>E | FED (TCB,C) | DGA G2 ||
|| (B/c/) \
| dBd cBA | GAG F<D (B/c/) | dBd cBA | (TGFG) B2A |
| G>AG FGA | B>AG AD>E | FED (TCB,C) | DGA G2 ||


